X: 6
T:The Jack Daniels Reel
M:4/4
L:1/8
C:Trad.
K:A
|:A2 GB A2 GA|BAGB AcBA|GABc defg|agaf edcB|
A2 GB A2 GA|BAGB AcBA|GABc defg|a2 g2 a2 e2:|
|:c'eae c'eae|c'ec'e c'eae|d'ebe d'ebe|d'ed'e d'ebe|
c'eae c'eae|c'ec'e c'eae|eagf edcB|Aceg a2 e2:|
Acea c'aec|Acea c'aec|Bege befg|agaf edcB|
Acea c'aec|Acea c'aec|Bege befg|a2 g2 a2 e2:|

